X:1
T:Isaac Watts, 1706 Sun, Moon, and Stars 88. 88. (L. M.)
T:D Major Oliver Holden, 1800
T:Sun Transcribed from Plain Psalmody, 1800.
%%score [ 1 2 3 ]
L:1/8
Q:1/4=70
M:2/4
K:D
V:1 treble nm="Treble" snm="Tr."
V:2 treble-8 nm="Tenor" snm="T."
V:3 bass nm="Bass" snm="B."
V:1
 d2 AF | ED GA | (B2 A2) || e2 fd | c3 d | e2 d2 | c4 || d2 dA | dA FD | A>c d/c/ B/A/ | %10
w: 1.~Fair- est of|all the lights a-|bove, *|Thou sun, whose|beams a-|dorn the|spheres;|And with un-|wea- ried swift- ness|move To form * the *|
w: 2.~Praise the Cre-|a- tor of the|skies, *|That dressed thine|orb in|gol- den|rays;|Or may the|sun for- get to|rise, If he * for- *|
w: 3.~Thou reign- ing|beau- ty of the|night, *|Fair queen of|si- lence,|sil- ver|moon,|Whose gen- tle|beams and bor- rowed|light Are sof- * ter *|
 G>AB/G/ F/A/ | d2 c2 | d4 |] %13
w: cir- * * * cles *|of our|years.|
w: get * * * his *|Ma- ker's|praise.|
w: ri- * * * vals *|of the|noon.|
V:2
 A2 FA | GF EF | (G2 F2) || A2 dB | e3 d | c2 B2 | A4 || A2 G/F/ G/F/ | dA FD | d>e f/e/ d/c/ | %10
w: 4.~A- rise, and|to that sove- reign|power *|Wax- ing and|wa- ning|hon- ors|pay;|Who bade * thee *|rule the dus- ky|hour, And half * sup- *|
w: 5.~Ye twin- kling|stars, who gild the|skies, *|When dark- ness|has its|cur- tains|drawn,|Who keep * your *|watch with wake- ful|eyes, When busi- * ness, *|
w: 6.~Pro- claim the|glo- ries of your|Lord, *|Dis- persed through|all the|heav'n- ly|streets,|Whose bound- * less *|trea- sures can af-|ford So rich * a *|
 B>cd/B/ A/G/ | F2 E2 | D4 |] %13
w: ply * * * the *|ab- sent|day.|
w: cares, * * * and *|day are|gone.|
w: pave- * * * ment *|for his|feet.|
V:3
"^___________________________________________\nEdited by B. C. Johnston, 2016.\n   1. Meaasure 4, Bass: first note changed from F# to E." D,2 D,D, | %1
w: 7.~Thou heav'n of|
w: 8.~Praise thou the|
w: 9.~O God of|
 C,D, A,,A,, | D,4 || E,2 F,G, | A,3 A, | A,2 E,2 | A,4 || D,2 D,A, | DA, F,D, | F,>A, D,F, | %10
w: heav'ns, su- pre- mely|bright,|Fair pa- lace|of the|court di-|vine,|Where, with in-|im- it- a- ble|light, The God- head|
w: great in- ha- bi-|tant,|Who scat- ters|love- ly|beams of|grace|On eve- ry|an- gel, eve- ry|saint, Nor veils the|
w: glo- ry, God of|love,|Thou art the|sun that|makes our|days;|With all thy|shi- ning works a-|bove, Let earth and|
 G,3 F,/G,/ | A,2 A,,2 | D,4 |] %13
w: con- de- *|scends to|shine.|
w: lus- ter *|of his|face.|
w: dust at- *|tempt thy|praise.|

